X: 38512
T: Steffaleken
R: waltz
M: 3/4
K: Gmajor
F|:(3G2G2F2 D2|(3::4GAB2G2 A>B|(3cAc (3BGB A>F|(3GAB (3GAF D>F|
(3G2G2F2 D2|(3::4GAB2G2 A>B|(3cAc (3BGB A>F|1 (3GAB G2 G>F:|2 (3GAB G2 G>B||
|:(3d2d2B2 c>A|(3::4GAB2G2 A>B|(3cAc (3BGB A>F|(3GAB (3GAF D>B|
(3d2d2B2 c>A|(3::4GAB2G2 A>B|(3cAc (3BGB A>F|1 (3GAB G2 G>B:|2 (3GAB G2 G3/2||

